X: 16442
T: Hag At The Churn, The
R: jig
M: 6/8
K: Dmixolydian
"D" A2G ADD|A2 G Adc|A2 G ADD|"C" EFG "Am7"EFG|
"D" A2G ADD|AAG Adc|A2 G ADD|"C" EFG "Am7"EFG|
|:"D"AdB "Am7"c3|Add efg|1 "D"AdB "Am7"c3|AGE "C"GED:|
[2 "C"fge "G/B"dBA|"Am7" GEF GED||"D"A2 G ADD|AAG Adc|
A2 G ADD|"Am7" EFG EFG|"D"A3 ADD|AAG Adc|
A2 G ADD|"Am7" EFG EFG|:"D"AdB "Am7"c3|Add efg|
[1 "D" AdB "Am7"c3|"D" AGE "Am7" GED:|2 "C" fge "G/B" dBA|"Am7" GEF GE"D"D||

